rails/app/javascript/images/works/lettings/logo.svg

<svg viewBox="0 0 450 150" xmlns="http://www.w3.org/2000/svg" fill-rule="evenodd" clip-rule="evenodd" stroke-linejoin="round" stroke-miterlimit="2"><path fill="#fff" d="M0 0h450v150H0z"/><path d="M451.912 252.419V62.83h3.136l-.157-.243h.003l-.346-.535-.001-.003-2.242-3.481h.004l-.322-.501-.003.004-.642-.999h-.192l.004-.007h-.606l-.004.007h-2.343l-.001-.007h-.609l.003.007h-1.922l.006-.007h-.609v.007h-2.348l-.003-.007h-.603l.005.007h-1.922v-.007h-.606l-.004.007h-2.342l-.002-.007h-.603v.007h-1.92l.004-.007h-.608l-.002.007h-2.34l-.004-.007h-.608l.005.007h-1.924l.003-.007h-.602l-.008.007h-2.336l-.002-.007h-.608l.004.007h-1.845V32.883l.468.289h.005l1.644 1.008.031-.078.233-.529-.004-.004 1.104-2.583-.189-.122.007.002-.873-.557.002.004-1.982-1.269-.218-.137-.944-.607-.424-.269-4.521-2.888-.218-.144-.653-.415-.21-.136-2.908-1.858-.359-.23-1.268-.812-.333-.21-4.359-2.788-.257-.167-1.183-.754-.847-.539v-.003l-.001.003-.005-.009-.008.021-1.021.654-.26.165v.002l-.992.635-.267.168h.003l-4.478 2.863-.06.037-4.337 2.771-.317.203-.659.42-.02.016-5.096 3.253-.047.032h.001l-3.218 2.057.005-.004-.406.258-.557.358.517 1.209.005.017.565 1.324.226.536.05.11 1.818-1.11.282-.174V32.9l.014-.01v24.182h-1.875l.002-.007h-.61l-.002.007h-2.336l-.002-.007h-.609l.004.007h-1.921l.008-.007h-.61l-.004.007h-2.338l-.003-.007h-.602v.007h-1.919l.002-.007h-.608l-.005.007h-2.334l-.007-.007h-.603l.003.007h-1.919v-.007h-.602l-.004.007h-2.339l-.005-.007h-.603l.004.007h-1.921l.007-.007h-.614l-.004.007h-2.333l-.005-.007h-.608l.005.007h-.178l-.601.939V43.632l2.86 1.123 1.839-2.765-29.351-12.007h-.001l-.01-.006-.009.02-10.25 4.189v-4.859h.741V26.91h-11.816v2.417h.743v9.085l-8.757 3.583 1.837 2.76 2.862-1.121v12.629h-11.759v2.731h.845v2.038l-9.961-8.391-.015-.021-.006.006h-.004l-20.889 17.605V52.843h4.256l-.468-.747v-.002l-.161-.261-.004.005-.299-.484-.178-.279-.332-.531v-.003l-.167-.262-.662-1.057.005.004-.819-1.306-.379-.596h-.783v-.004h-.378v.004h-1.26v-.004h-.376v.004h-1.404l.004-.004h-.378l-.003.004h-1.258v-.004h-.382l.003.004h-1.404v-.004h-.378v.004h-1.263v-.004h-.376l.003.004h-1.405v-.004h-.374l-.006.004h-1.26v-.004h-.377v.004h-1.405l.002-.004h-.375l-.002.004h-1.261l-.001-.004h-.378v.004h-1.401v-.004h-.381v.004h-1.258v-.004h-.375v.004h-1.406v-.004h-.375v.004h-1.263v-.004h-.376v.004h-1.407l.005-.004h-.378v.004h-1.263v-.004h-.375v.004h-1.404v-.004h-.376l-.006.004h-1.256l-.002-.004h-.377v.004h-.439v-4.411h.635v-2.782h-12.964v2.782h.634v4.411h-1.157v-.004h-.375v.004h-.85l-.626.995-.594.959-.619.975v-.002l-.161.267-.319.501-.177.284.001.003-.313.498v-.001l-.163.261v.003l-.487.776h4.253v19.063h-1.999l-.001-.004h-.609l.004.004h-1.923l.003-.004h-.603l-.004.004h-2.343l-.001-.004h-.604l.006.004h-1.924l.004-.004h-.606l-.003.004h-2.335l-.004-.004h-.61l.004.004h-1.92l.004-.004h-.606l-.004.004h-2.339l-.002-.004h-.607l.001.004h-1.916l.004-.004h-.608l-.005.004h-2.336l-.003-.004h-.606l.002.004h-1.879v-24.18l.017.007.298.184 1.801 1.104.101-.234.176-.41v-.004l.46-1.081.114-.259v-.002l.514-1.203-.235-.15.007.003-.736-.473.007.004-2.071-1.32v-.004l-.453-.284-.695-.445-.272-.175-17.277-11.048-.012-.021-.005.009h-.003l-.844.538-.418.272-.758.487h-.005l-.488.314-1.341.858v-.003l-.964.618-1.823 1.165-.417.263h.002l-1.187.761h-.002l-1.097.702-1.893 1.21-.485.31-.651.414-.42.271-5.618 3.591-.287.184v.001l-1.989 1.269.004-.003-.871.559.002-.003-.181.117.596 1.405.125.301.638 1.49 2.119-1.295v24.186h-1.845l.007-.004h-.608l-.004.004h-2.338l-.009-.004h-.6l.001.004h-1.922l.005-.004h-.608l-.004.004h-2.338v-.004h-.612l.004.004h-1.923l.005-.004h-.604l-.004.004h-2.342v-.004h-.608l.002.004h-1.922l.003-.004h-.607l-.005.004h-2.341l-.001-.004h-.608l.002.004h-1.921l.004-.004h-.606l-.005.004h-2.34l-.006-.004h-.603l.003.004h-.192l-.578.897v-5.129h4.258l-.49-.775-.163-.264-.311-.492v-.005l-.179-.283-.321-.502.006-.002-.165-.262-.617-.982-.799-1.272-.424-.675h-2.379v-4.416h.631v-2.781h-12.961v2.781h.632v4.416h-2.456.002-13.677.006-13.664v-3.688l2.858 1.121 1.837-2.762-8.748-3.579v-9.089h.737v-2.415H75.909v2.415h.743v4.86L66.399 44.83l-.013-.02-.005.007h-.003l-29.351 12.01 1.843 2.763 2.858-1.124v26.418L21.057 67.463l-.004-.004v.004l-.005-.01-.016.023-9.96 8.393v-2.038h.843v-2.733H-1.453v2.733h.842v11.886l-4.556 3.844 2.079 3.12 3.233-2.772v162.484l451.767.026z" fill="url(#_Linear1)"/><text font-family="'HelveticaNeue','Helvetica Neue'" font-size="48" fill="#fff" transform="translate(15.618 130.827)">Lettings Application</text><path fill="none" d="M276.212 14.621h120.763v120.763H276.212z"/><defs><linearGradient id="_Linear1" x1="0" y1="0" x2="1" y2="0" gradientUnits="userSpaceOnUse" gradientTransform="rotate(-90 238.68 13.739) scale(235.339)"><stop offset="0" stop-color="#007c96"/><stop offset=".2" stop-color="#00809b"/><stop offset=".7" stop-color="#60c0da"/><stop offset="1" stop-color="#78d0e9"/></linearGradient></defs></svg>

<?xml version="1.0" encoding="UTF-8" standalone="no"?>
<!DOCTYPE svg PUBLIC "-//W3C//DTD SVG 1.1//EN" "http://www.w3.org/Graphics/SVG/1.1/DTD/svg11.dtd">
<svg width="100%" height="100%" viewBox="0 0 450 120" version="1.1" xmlns="http://www.w3.org/2000/svg" xmlns:xlink="http://www.w3.org/1999/xlink" xml:space="preserve" xmlns:serif="http://www.serif.com/" style="fill-rule:evenodd;clip-rule:evenodd;stroke-linejoin:round;stroke-miterlimit:2;">
    <g transform="matrix(1,0,0,0.8,0,0)">
        <rect x="0" y="0" width="450" height="150" style="fill:white;"/>
    </g>
    <g transform="matrix(1,0,0,0.475911,0.0595,-0.12904)">
        <path d="M451.912,252.419L451.912,62.83L455.048,62.83L454.891,62.587L454.894,62.587L454.548,62.052L454.547,62.049L452.305,58.568L452.309,58.568L451.987,58.067L451.984,58.071L451.342,57.072L451.15,57.072L451.154,57.065L450.548,57.065L450.544,57.072L448.201,57.072L448.2,57.065L447.591,57.065L447.594,57.072L445.672,57.072L445.678,57.065L445.069,57.065L445.069,57.072L442.721,57.072L442.718,57.065L442.115,57.065L442.12,57.072L440.198,57.072L440.198,57.065L439.592,57.065L439.588,57.072L437.246,57.072L437.244,57.065L436.641,57.065L436.641,57.072L434.721,57.072L434.725,57.065L434.117,57.065L434.115,57.072L431.775,57.072L431.771,57.065L431.163,57.065L431.168,57.072L429.244,57.072L429.247,57.065L428.645,57.065L428.637,57.072L426.301,57.072L426.299,57.065L425.691,57.065L425.695,57.072L423.85,57.072L423.85,32.883L424.318,33.172L424.323,33.172L425.967,34.18L425.998,34.102L426.231,33.573L426.227,33.569L427.331,30.986L427.142,30.864L427.149,30.866L426.276,30.309L426.278,30.313L424.296,29.044L424.078,28.907L423.134,28.3L422.71,28.031L418.189,25.143L417.971,24.999L417.318,24.584L417.108,24.448L414.2,22.59L413.841,22.36L412.573,21.548L412.24,21.338L407.881,18.55L407.624,18.383L406.441,17.629L405.594,17.09L405.594,17.087L405.593,17.09L405.588,17.081L405.58,17.102L404.559,17.756L404.299,17.921L404.299,17.923L403.307,18.558L403.04,18.726L403.043,18.726L398.565,21.589L398.505,21.626L394.168,24.397L393.851,24.6L393.192,25.02L393.172,25.036L388.076,28.289L388.029,28.321L388.03,28.321L384.812,30.378L384.817,30.374L384.411,30.632L383.854,30.99L384.371,32.199L384.376,32.216L384.941,33.54L385.167,34.076L385.217,34.186L387.035,33.076L387.317,32.902L387.317,32.9L387.331,32.89L387.331,57.072L385.456,57.072L385.458,57.065L384.848,57.065L384.846,57.072L382.51,57.072L382.508,57.065L381.899,57.065L381.903,57.072L379.982,57.072L379.99,57.065L379.38,57.065L379.376,57.072L377.038,57.072L377.035,57.065L376.433,57.065L376.433,57.072L374.514,57.072L374.516,57.065L373.908,57.065L373.903,57.072L371.569,57.072L371.562,57.065L370.959,57.065L370.962,57.072L369.043,57.072L369.043,57.065L368.441,57.065L368.437,57.072L366.098,57.072L366.093,57.065L365.49,57.065L365.494,57.072L363.573,57.072L363.58,57.065L362.966,57.065L362.962,57.072L360.629,57.072L360.624,57.065L360.016,57.065L360.021,57.072L359.843,57.072L359.242,58.011L359.242,43.632L362.102,44.755L363.941,41.99L334.59,29.983L334.589,29.983L334.579,29.977L334.57,29.997L324.32,34.186L324.32,29.327L325.061,29.327L325.061,26.91L313.245,26.91L313.245,29.327L313.988,29.327L313.988,38.412L305.231,41.995L307.068,44.755L309.93,43.634L309.93,56.263L298.171,56.263L298.171,58.994L299.016,58.994L299.016,61.032L289.055,52.641L289.04,52.62L289.034,52.626L289.03,52.626L268.141,70.231L268.141,52.843L272.397,52.843L271.929,52.096L271.929,52.094L271.768,51.833L271.764,51.838L271.465,51.354L271.287,51.075L270.955,50.544L270.955,50.541L270.788,50.279L270.126,49.222L270.131,49.226L269.312,47.92L268.933,47.324L268.15,47.324L268.15,47.32L267.772,47.32L267.772,47.324L266.512,47.324L266.512,47.32L266.136,47.32L266.136,47.324L264.732,47.324L264.736,47.32L264.358,47.32L264.355,47.324L263.097,47.324L263.097,47.32L262.715,47.32L262.718,47.324L261.314,47.324L261.314,47.32L260.936,47.32L260.936,47.324L259.673,47.324L259.673,47.32L259.297,47.32L259.3,47.324L257.895,47.324L257.895,47.32L257.521,47.32L257.515,47.324L256.255,47.324L256.255,47.32L255.878,47.32L255.878,47.324L254.473,47.324L254.475,47.32L254.1,47.32L254.098,47.324L252.837,47.324L252.836,47.32L252.458,47.32L252.458,47.324L251.057,47.324L251.057,47.32L250.676,47.32L250.676,47.324L249.418,47.324L249.418,47.32L249.043,47.32L249.043,47.324L247.637,47.324L247.637,47.32L247.262,47.32L247.262,47.324L245.999,47.324L245.999,47.32L245.623,47.32L245.623,47.324L244.216,47.324L244.221,47.32L243.843,47.32L243.843,47.324L242.58,47.324L242.58,47.32L242.205,47.32L242.205,47.324L240.801,47.324L240.801,47.32L240.425,47.32L240.419,47.324L239.163,47.324L239.161,47.32L238.784,47.32L238.784,47.324L238.345,47.324L238.345,42.913L238.98,42.913L238.98,40.131L226.016,40.131L226.016,42.913L226.65,42.913L226.65,47.324L225.493,47.324L225.493,47.32L225.118,47.32L225.118,47.324L224.268,47.324L223.642,48.319L223.048,49.278L222.429,50.253L222.429,50.251L222.268,50.518L221.949,51.019L221.772,51.303L221.773,51.306L221.46,51.804L221.46,51.803L221.297,52.064L221.297,52.067L220.81,52.843L225.063,52.843L225.063,71.906L223.064,71.906L223.063,71.902L222.454,71.902L222.458,71.906L220.535,71.906L220.538,71.902L219.935,71.902L219.931,71.906L217.588,71.906L217.587,71.902L216.983,71.902L216.989,71.906L215.065,71.906L215.069,71.902L214.463,71.902L214.46,71.906L212.125,71.906L212.121,71.902L211.511,71.902L211.515,71.906L209.595,71.906L209.599,71.902L208.993,71.902L208.989,71.906L206.65,71.906L206.648,71.902L206.041,71.902L206.042,71.906L204.126,71.906L204.13,71.902L203.522,71.902L203.517,71.906L201.181,71.906L201.178,71.902L200.572,71.902L200.574,71.906L198.695,71.906L198.695,47.726L198.712,47.733L199.01,47.917L200.811,49.021L200.912,48.787L201.088,48.377L201.088,48.373L201.548,47.292L201.662,47.033L201.662,47.031L202.176,45.828L201.941,45.678L201.948,45.681L201.212,45.208L201.219,45.212L199.148,43.892L199.148,43.888L198.695,43.604L198,43.159L197.728,42.984L180.451,31.936L180.439,31.915L180.434,31.924L180.431,31.924L179.587,32.462L179.169,32.734L178.411,33.221L178.406,33.221L177.918,33.535L176.577,34.393L176.577,34.39L175.613,35.008L173.79,36.173L173.373,36.436L173.375,36.436L172.188,37.197L172.186,37.197L171.089,37.899L169.196,39.109L168.711,39.419L168.06,39.833L167.64,40.104L162.022,43.695L161.735,43.879L161.735,43.88L159.746,45.149L159.75,45.146L158.879,45.705L158.881,45.702L158.7,45.819L159.296,47.224L159.421,47.525L160.059,49.015L162.178,47.72L162.178,71.906L160.333,71.906L160.34,71.902L159.732,71.902L159.728,71.906L157.39,71.906L157.381,71.902L156.781,71.902L156.782,71.906L154.86,71.906L154.865,71.902L154.257,71.902L154.253,71.906L151.915,71.906L151.915,71.902L151.303,71.902L151.307,71.906L149.384,71.906L149.389,71.902L148.785,71.902L148.781,71.906L146.439,71.906L146.439,71.902L145.831,71.902L145.833,71.906L143.911,71.906L143.914,71.902L143.307,71.902L143.302,71.906L140.961,71.906L140.96,71.902L140.352,71.902L140.354,71.906L138.433,71.906L138.437,71.902L137.831,71.902L137.826,71.906L135.486,71.906L135.48,71.902L134.877,71.902L134.88,71.906L134.688,71.906L134.11,72.803L134.11,67.674L138.368,67.674L137.878,66.899L137.715,66.635L137.404,66.143L137.404,66.138L137.225,65.855L136.904,65.353L136.91,65.351L136.745,65.089L136.128,64.107L135.329,62.835L134.905,62.16L132.526,62.16L132.526,57.744L133.157,57.744L133.157,54.963L120.196,54.963L120.196,57.744L120.828,57.744L120.828,62.16L118.372,62.16L118.374,62.16L104.697,62.16L104.703,62.16L91.039,62.16L91.039,58.472L93.897,59.593L95.734,56.831L86.986,53.252L86.986,44.163L87.723,44.163L87.723,41.748L75.909,41.748L75.909,44.163L76.652,44.163L76.652,49.023L66.399,44.83L66.386,44.81L66.381,44.817L66.378,44.817L37.027,56.827L38.87,59.59L41.728,58.466L41.728,84.884L21.057,67.463L21.053,67.459L21.053,67.463L21.048,67.453L21.032,67.476L11.072,75.869L11.072,73.831L11.915,73.831L11.915,71.098L-1.453,71.098L-1.453,73.831L-0.611,73.831L-0.611,85.717L-5.167,89.561L-3.088,92.681L0.145,89.909L0.145,252.393L451.912,252.419Z" style="fill:url(#_Linear1);"/>
    </g>
    <g transform="matrix(1,0,0,1,11.736,97.272)">
        <text x="0px" y="0px" style="font-family:'HelveticaNeue', 'Helvetica Neue';font-size:48px;fill:white;">Lettings Application</text>
    </g>
    <rect x="276.212" y="14.621" width="120.763" height="120.763" style="fill:none;"/>
    <defs>
        <linearGradient id="_Linear1" x1="0" y1="0" x2="1" y2="0" gradientUnits="userSpaceOnUse" gradientTransform="matrix(-9.01012e-14,-235.339,235.339,-9.01012e-14,224.941,252.419)"><stop offset="0" style="stop-color:rgb(0,124,150);stop-opacity:1"/><stop offset="0.2" style="stop-color:rgb(0,128,155);stop-opacity:1"/><stop offset="0.7" style="stop-color:rgb(96,192,218);stop-opacity:1"/><stop offset="1" style="stop-color:rgb(120,208,233);stop-opacity:1"/></linearGradient>
    </defs>
</svg>
